flaticon/social-media/pinterest.svg

<svg xmlns="http://www.w3.org/2000/svg" width="32" height="32" viewBox="0 0 24 24">
    <path d="M 12 0 C 5.398438 0 0 5.398438 0 12 C 0 16.761719 2.839844 21.078125 7.199219 23 L 7.71875 23.28125 L 7.679688 22.640625 C 7.640625 21.640625 7.71875 20.800781 7.878906 20.078125 C 8.078125 19.121094 9.359375 13.761719 9.359375 13.761719 L 9.398438 13.601562 L 9.320312 13.480469 C 9.320312 13.480469 9 12.839844 9 11.839844 C 9 10.398438 9.800781 9.238281 10.839844 9.238281 C 11.921875 9.238281 12 10.28125 12 10.601562 C 12 11.199219 11.71875 12.039062 11.441406 12.960938 C 11.28125 13.480469 11.078125 14.039062 10.960938 14.601562 C 10.800781 15.28125 10.960938 15.960938 11.359375 16.480469 C 11.800781 17 12.480469 17.320312 13.199219 17.320312 C 15.519531 17.320312 17.28125 14.519531 17.28125 10.761719 C 17.28125 7.839844 15.199219 5.921875 12.039062 5.921875 C 8.558594 5.921875 5.917969 8.480469 5.917969 11.878906 C 5.917969 12.878906 6.199219 13.71875 6.761719 14.398438 C 6.878906 14.519531 6.878906 14.558594 6.878906 14.558594 C 6.878906 14.601562 6.878906 14.601562 6.839844 14.71875 L 6.839844 14.800781 C 6.800781 15.039062 6.679688 15.441406 6.640625 15.640625 C 6.640625 15.679688 6.640625 15.679688 6.640625 15.679688 L 6.601562 15.679688 C 5.238281 15.121094 4.480469 13.640625 4.480469 11.601562 C 4.480469 6.878906 9.078125 4.761719 12.359375 4.761719 C 16.71875 4.761719 19.320312 7.921875 19.320312 11 C 19.320312 15.441406 16.921875 18.558594 13.480469 18.558594 C 12.320312 18.558594 11.320312 17.921875 11 17.320312 L 10.519531 16.398438 L 10.28125 17.398438 C 10.28125 17.398438 9.601562 20.039062 9.480469 20.558594 C 9.28125 21.238281 8.921875 22.039062 8.359375 22.921875 L 8.078125 23.359375 L 8.601562 23.519531 C 9.71875 23.839844 10.839844 24 12 24 C 18.601562 24 24 18.601562 24 12 C 24 5.398438 18.601562 0 12 0 Z M 12 23.199219 C 11.078125 23.199219 10.199219 23.078125 9.320312 22.878906 C 9.761719 22.121094 10.078125 21.398438 10.28125 20.839844 C 10.398438 20.480469 10.71875 19.238281 10.921875 18.398438 C 11.558594 18.960938 12.601562 19.359375 13.558594 19.359375 C 17.398438 19.359375 20.199219 15.839844 20.199219 11 C 20.199219 7.558594 17.28125 3.960938 12.441406 3.960938 C 9.121094 3.960938 7.078125 5.320312 5.960938 6.480469 C 4.558594 7.878906 3.761719 9.761719 3.761719 11.601562 C 3.761719 13.921875 4.761719 15.71875 6.398438 16.398438 C 6.640625 16.519531 6.878906 16.519531 7.078125 16.398438 C 7.320312 16.28125 7.441406 16.078125 7.519531 15.839844 C 7.558594 15.640625 7.640625 15.199219 7.71875 14.960938 L 7.71875 14.878906 C 7.839844 14.441406 7.761719 14.199219 7.480469 13.878906 C 7 13.359375 6.800781 12.71875 6.800781 11.878906 C 6.800781 8.519531 9.558594 6.71875 12.121094 6.71875 C 14.878906 6.71875 16.558594 8.28125 16.558594 10.761719 C 16.558594 14.039062 15.160156 16.519531 13.28125 16.519531 C 12.800781 16.519531 12.359375 16.320312 12.078125 15.960938 C 11.839844 15.640625 11.71875 15.199219 11.839844 14.761719 C 11.960938 14.238281 12.121094 13.679688 12.28125 13.160156 C 12.601562 12.199219 12.878906 11.28125 12.878906 10.558594 C 12.878906 9.28125 12.078125 8.398438 10.921875 8.398438 C 9.441406 8.398438 8.28125 9.878906 8.28125 11.800781 C 8.28125 12.71875 8.519531 13.398438 8.640625 13.679688 C 8.441406 14.519531 7.359375 19.039062 7.160156 19.878906 C 7 20.480469 6.921875 21.199219 6.921875 22 C 3.199219 20.078125 0.800781 16.238281 0.800781 12 C 0.800781 5.839844 5.839844 0.800781 12 0.800781 C 18.160156 0.800781 23.199219 5.839844 23.199219 12 C 23.199219 18.160156 18.160156 23.199219 12 23.199219 Z M 12 23.199219"/>
</svg>

<svg xmlns="http://www.w3.org/2000/svg" width="32" height="32" viewBox="0 0 24 24">
    <path d="M12 0C5.398 0 0 5.398 0 12c0 4.762 2.84 9.078 7.2 11l.519.281-.04-.64c-.038-1 .04-1.84.2-2.563.2-.957 1.48-6.316 1.48-6.316l.04-.16-.079-.122S9 12.84 9 11.84c0-1.442.8-2.602 1.84-2.602 1.082 0 1.16 1.043 1.16 1.364 0 .597-.281 1.437-.559 2.359-.16.52-.363 1.078-.48 1.64-.16.68 0 1.36.398 1.88a2.43 2.43 0 0 0 1.84.84c2.32 0 4.082-2.801 4.082-6.56 0-2.921-2.082-4.84-5.242-4.84-3.48 0-6.121 2.56-6.121 5.958 0 1 .281 1.84.844 2.52.117.12.117.16.117.16 0 .043 0 .043-.04.16v.082c-.038.238-.16.64-.198.84v.039H6.6c-1.363-.559-2.12-2.04-2.12-4.078 0-4.723 4.597-6.84 7.878-6.84 4.36 0 6.961 3.16 6.961 6.238 0 4.441-2.398 7.559-5.84 7.559-1.16 0-2.16-.637-2.48-1.239l-.48-.922-.239 1s-.68 2.641-.8 3.16c-.2.68-.56 1.481-1.122 2.364l-.28.437.523.16C9.719 23.84 10.84 24 12 24c6.602 0 12-5.398 12-12S18.602 0 12 0zm0 23.2c-.922 0-1.8-.122-2.68-.321.442-.758.758-1.48.961-2.04.117-.359.438-1.6.64-2.44.638.562 1.68.96 2.638.96 3.84 0 6.64-3.52 6.64-8.359 0-3.441-2.918-7.04-7.758-7.04-3.32 0-5.363 1.36-6.48 2.52-1.402 1.399-2.2 3.282-2.2 5.122 0 2.32 1 4.117 2.637 4.796.243.122.48.122.68 0 .242-.117.363-.32.442-.558.039-.2.12-.64.199-.88v-.081c.12-.438.043-.68-.239-1-.48-.52-.68-1.16-.68-2 0-3.36 2.759-5.16 5.321-5.16 2.758 0 4.438 1.562 4.438 4.043 0 3.277-1.399 5.758-3.278 5.758-.48 0-.922-.2-1.203-.56a1.397 1.397 0 0 1-.238-1.198 23.78 23.78 0 0 1 .441-1.602c.32-.96.598-1.879.598-2.601 0-1.278-.8-2.16-1.957-2.16-1.48 0-2.64 1.48-2.64 3.402 0 .918.238 1.597.359 1.879-.2.84-1.282 5.36-1.48 6.199-.161.601-.24 1.32-.24 2.121C3.2 20.078.802 16.238.802 12 .8 5.84 5.84.8 12 .8S23.2 5.84 23.2 12c0 6.16-5.04 11.2-11.2 11.2zm0 0"/>
</svg>
